X: 1
T: The Glasgow Ceilidh Club
O: Trad
R: jig
M: 6/8
L: 1/8
K: Bm
"(A)"c \
| "Bm"dcB BAF | BAB "E7"d2B | "A"cBA ceA | cea "F#7"edc | "Bm"dcB BAF |
| BAB "G"d2e | "D"faf "F#7"edc | "Bm"dBB B2 :: "A7"c | "D"dfa dfa | dfa fed |
| "A"ceA ceA | cea "F#7"edc | "Bm"dcB BAF | BAB "G"d2e | "D"faf "F#7"edc | "Bm"dBB B2 :|
